www/assets/icons/queue_play_next.svg

<svg width="24" height="24" viewBox="0 0 24 24" xmlns="http://www.w3.org/2000/svg" fill='currentColor'><path d="M20.5 2.25H2.5C1.39 2.25 0.5 3.14 0.5 4.25V16.25C0.5 17.35 1.39 18.25 2.5 18.25H7.5V20.25H15.5V18.25H17.5V16.25H2.5V4.25H20.5V12.25H22.5V4.25C22.5 3.14 21.6 2.25 20.5 2.25ZM12.5 9.25V6.25H10.5V9.25H7.5V11.25H10.5V14.25H12.5V11.25H15.5V9.25H12.5ZM23.5 17.25L19 21.75L17.5 20.25L20.5 17.25L17.5 14.25L19 12.75L23.5 17.25Z"/></svg>

<svg xmlns="http://www.w3.org/2000/svg" width="24" height="24" viewBox="0 0 24 24" fill='currentColor'><path d="M20.5 2.25h-18c-1.11 0-2 .89-2 2v12a2 2 0 0 0 2 2h5v2h8v-2h2v-2h-15v-12h18v8h2v-8a2 2 0 0 0-2-2m-8 7v-3h-2v3h-3v2h3v3h2v-3h3v-2zm11 8-4.5 4.5-1.5-1.5 3-3-3-3 1.5-1.5z"/></svg>
